X:1
T:[ID 5-10a]
T:[ID 5-10a]
T:Bezeichnung standardisiert: Tantz Tantz
T:Urheber unbekannt Datum in der hier transkribierten schriftlichen Quelle: 1773
C:Urheber unbekannt
C:Datum in der hier transkribierten schriftlichen Quelle: 1773
L:1/8
M:2/4
K:D
V:1 treble 
V:1
 D | G2 A2 | B/c/B/A/ GA | B2 c2 | d/e/d/c/ Bc | d2 e2 | de/f/ gB | c2 B2 | A4 ::!p! d2 c2 | %10
 B2 A2 | (3ded (3cdc | (3BcB A2 | GABc | de/f/ gc | B2 A2 | D4 :| %17

